!!!!SEGMENT: artfugue-004.krn
!!!COM: Bach, Johann Sebastian
!!!CDT: 1685/03/31-1750/07/28
!!!OPR@@DE: Die Kunst der Fuge
!!!OPR@EN: The Art of the Fugue
!!!OTL: Contrapunctus 4, a 4.
!!!SCA: BWV 1080
!!!voices: 4
!!!AGN: Simple fugue
**kern	**kern	**kern	**kern
*part4	*part3	*part2	*part1
*staff4	*staff3	*staff2	*staff1
*I"	*I"	*I"	*I"
*clefF4	*clefC4	*clefC3	*clefC1
*mclefF4	*mclefGv2	*mclefG2	*mclefG2
*k[b-]	*k[b-]	*k[b-]	*k[b-]
*d:	*d:	*d:	*d:
*M2/2	*M2/2	*M2/2	*M2/2
*met(c|)	*met(c|)	*met(c|)	*met(c|)
*mmet(c|)	*mmet(c|)	*mmet(c|)	*mmet(c|)
*MM100	*MM100	*MM100	*MM100
=1	=1	=1	=1
1r	1r	1r	2a
.	.	.	2d
=2	=2	=2	=2
1r	1r	1r	2f
.	.	.	2a
=3	=3	=3	=3
1r	1r	1r	2b-
.	.	.	4a
.	.	.	4g
=4	=4	=4	=4
1r	1r	1r	[2f
.	.	.	8fL]
.	.	.	8e
.	.	.	8f
.	.	.	8gJ
=5	=5	=5	=5
1r	1r	2d	[2a
.	.	2A	8aL]
.	.	.	8b-X
.	.	.	8a
.	.	.	8g#XJ
=6	=6	=6	=6
1r	1r	2c	[2a
.	.	2e	8aL]
.	.	.	8b-X
.	.	.	8a
.	.	.	8g#XJ
=7	=7	=7	=7
1r	1r	2f	4a
.	.	.	4dd
.	.	4e	4g
.	.	4d	[4b-
=8	=8	=8	=8
1r	1r	[2c#X	4b-]
.	.	.	4e
.	.	8c#L]	4a
.	.	8A	.
.	.	8B	[4g
.	.	8c#J	.
=9	=9	=9	=9
1r	1r	[2d	4g]
.	.	.	4f
.	.	8dL]	[2b-
.	.	8cn	.
.	.	8d	.
.	.	8eJ	.
!!LO:LB:g=original
=10	=10	=10	=10
1r	1r	[2f	4b-]
.	.	.	4a
.	.	8fL]	[2dd
.	.	8e	.
.	.	8f	.
.	.	8gJ	.
=11	=11	=11	=11
1r	2A	[2a	4dd]
.	.	.	4cc
.	2D	8aL]	[2b-
.	.	8g	.
.	.	8f	.
.	.	8eJ	.
=12	=12	=12	=12
1r	2F	[2d	4b-]
.	.	.	8aL
.	.	.	8gJ
.	2A	8dL]	[>2f
.	.	8e	.
.	.	8d	.
.	.	8c#XJ	.
=13	=13	=13	=13
1r	2B-	4d	8fL]
.	.	.	8ff
.	.	4g	8ee
.	.	.	8ddJ
.	4A	4c#X	8eeL
.	.	.	8ff
.	4G	[4e	8gg
.	.	.	8eeJ
=14	=14	=14	=14
1r	[2F	4e]	2aa
.	.	4A	.
.	8FL]	[2d	4r
.	8E	.	.
.	8F	.	4a
.	8GJ	.	.
=15	=15	=15	=15
2D	[2A	8dL]	1f
.	.	8e-X	.
.	.	8d	.
.	.	8c#XJ	.
2AA	8AL]	4d	.
.	8B-X	.	.
.	8A	[4dd	.
.	8G#XJ	.	.
=16	=16	=16	=16
2C	[2A	4dd]	4e
.	.	8ccL	4ee
.	.	8bJ	.
2E	8AL]	8aL	[2cc
.	8B-X	8g	.
.	8A	8f	.
.	8G#XJ	8eJ	.
!!LO:LB:g=original
=17	=17	=17	=17
2F	4A	4d	8ccL]
.	.	.	8cc
.	4d	[4g	8b
.	.	.	8aJ
4E	4G	8gL]	8bL
.	.	8a	8cc#XJ
4D	[4B-	8g	4dd
.	.	8fJ	.
=18	=18	=18	=18
[2C#X	4B-]	8gL	[2ee
.	.	8a	.
.	4E	8b-	.
.	.	8gJ	.
8C#L]	4A	[2e	8eeL]
8AA	.	.	8cc#X
8BB	4G	.	8dd
8C#J	.	.	8eeJ
=19	=19	=19	=19
[2D/	8FL	4e]	2.a
.	8E	.	.
.	8F	8dL	.
.	8GJ	8eJ	.
8DL]	4A/	[2f	.
8C	.	.	.
8BB-	4r	.	4dd
8AAJ	.	.	.
=20	=20	=20	=20
[2GG	8r	4f]	2.b-
.	8DL	.	.
.	8E	4g	.
.	8FJ	.	.
8GGL]	4G	[2e	.
8BB-	.	.	.
8AA	4r	.	4cc
8GGJ	.	.	.
=21	=21	=21	=21
[2FF	8r	4e]	2.a
.	8C#XL	.	.
.	8D	4f	.
.	8EJ	.	.
8FFL]	4F	[2d	.
8AA	.	.	.
8GG	4r	.	4b-
8FFJ	.	.	.
=22	=22	=22	=22
[2EE	8r	4d]	2.g
.	8BBL	.	.
.	8C#X	4e	.
.	8DJ	.	.
8EEL]	4E	2c#X	.
8GG	.	.	.
8FF	4r	.	4a
8EEJ	.	.	.
=23	=23	=23	=23
4DD	8r	2d	2f
.	8AL	.	.
4D/	8B-	.	.
.	8cJ	.	.
4BB-	[2d	8r	2r
.	.	8ccL	.
4GG	.	8b-	.
.	.	8aJ	.
!!LO:LB:g=original
=24	=24	=24	=24
4EE	8dL]	[2g	1r
.	8B	.	.
4E	8c	.	.
.	8dJ	.	.
4C	[2e	8gL]	.
.	.	8dd	.
4AA	.	8cc	.
.	.	8b-J	.
=25	=25	=25	=25
4FF	8eL]	[2a	1r
.	8c#X	.	.
4F	8d	.	.
.	8eJ	.	.
4D	[2f	8aL]	.
.	.	8ee-X	.
4BB-	.	8dd	.
.	.	8ccJ	.
=26	=26	=26	=26
4GG	8fL]	[2b-	1r
.	8f	.	.
4G	8e	.	.
.	8dJ	.	.
4E	[2c	8b-L]	.
.	.	8b-	.
4C	.	8a	.
.	.	8gJ	.
=27	=27	=27	=27
8AAL	2.c]	4f	2cc
8FF	.	.	.
8GG	.	4e-X	.
8AAJ	.	.	.
8BB-L	.	2d	2f
8C	.	.	.
8D	4B-	.	.
8EJ	.	.	.
=28	=28	=28	=28
[2F	4A	8cL	2a
.	.	8g-X	.
.	4c	8f	.
.	.	8eJ	.
8FL]	[2A	[2f	2cc
8E-X	.	.	.
8D	.	.	.
8CJ	.	.	.
=29	=29	=29	=29
2BB-	8AL]	8fL]	2dd
.	8A	8cc	.
.	8G	8b-	.
.	8FJ	8aJ	.
2C	8EL	8gL	4cc
.	8DJ	8a	.
.	[4E	8g	4b-
.	.	8fJ	.
!!LO:LB:g=original
=30	=30	=30	=30
2C#X	4E]	8eL	[2a
.	.	8dJ	.
.	8AL	4e	.
.	8GJ	.	.
2D	8FL	2d	8aL]
.	8EJ	.	8g
.	[4F	.	8a
.	.	.	8bJ
=31	=31	=31	=31
2Cn	4F]	2g	2cc
.	8EL	.	.
.	8DJ	.	.
4r	8EL	2c	2r
.	8FJ	.	.
4E	[4G	.	.
=32	=32	=32	=32
4C	8GL]	2e	4r
.	8AJ	.	.
8GL	2B-	.	4ee
8FJ	.	.	.
8EL	.	2g	[2cc
8DJ	.	.	.
[4E-X	8AL	.	.
.	8GJ	.	.
=33	=33	=33	=33
8E-L]	2F	2a	4cc]
8E-X	.	.	.
8D	.	.	8bL
8CJ	.	.	8ccJ
8BBL	2r	4g	[2dd
8GG	.	.	.
8AA	.	4f	.
8BBJ	.	.	.
=34	=34	=34	=34
4C	1r	[2e	8ddL]
.	.	.	8g
4BB-X	.	.	8a
.	.	.	8bJ
2AA	.	8eL]	[2cc
.	.	8d	.
.	.	8e	.
.	.	8f#XJ	.
=35	=35	=35	=35
8GGL	2d	[2g	4cc]
8AA	.	.	.
8BB-	.	.	4dd
8DJ	.	.	.
2G	2G	8gL]	2b-
.	.	8a-X	.
.	.	8g	.
.	.	8f#XJ	.
!!LO:LB:g=original
=36	=36	=36	=36
1r	2B-	[2g	4r
.	.	.	4dd
.	2d	8gL]	4b-
.	.	8a-X	.
.	.	8g	[4bb-
.	.	8f#XJ	.
=37	=37	=37	=37
1r	2e-X	4g	4bb-]
.	.	4cc	8aaL
.	.	.	8ggJ
.	4d	4f#X	8aaL
.	.	.	8gg
.	4c	[4a	8ff#X
.	.	.	8aaJ
=38	=38	=38	=38
1r	[2B-	8aL]	2dd
.	.	8a-X	.
.	.	8g	.
.	.	8f#XJ	.
.	8B-L]	[2g	4r
.	8A	.	.
.	8B-	.	4dd
.	8cJ	.	.
=39	=39	=39	=39
2G	8dL	8gL]	4.b-
.	8e-X	8f#XJ	.
.	8d	[4g	.
.	8c#XJ	.	8b-
2D	8dL>	8gL]	2a
.	8En	8g	.
.	8F	8f	.
.	8GJ	8eJ	.
=40	=40	=40	=40
2F	8AL	2d	4r
.	8DJ	.	.
.	[4d	.	4aa
2A	8dL]	4r	2ff
.	8e-X	.	.
.	8d	4a	.
.	8c#XJ	.	.
=41	=41	=41	=41
2B-	8dL	4f	4r
.	8f	.	.
.	8e	4b-	4gg
.	8dJ	.	.
4A	4a	4.e	8cc#XL
.	.	.	8ddJ
4G	[4c#X	.	[4ee
.	.	8b-	.
!!LO:LB:g=original
=42	=42	=42	=42
[2F	4c#X]	8aL	8eeL]
.	.	8g	8a
.	8dL	8f	8b
.	8eJ	8gJ	8cc#XJ
8FL]	[2f	[2a	[2dd
8E	.	.	.
8F	.	.	.
8GJ	.	.	.
=43	=43	=43	=43
2A	4f]	8aL]	8ddL]
.	.	8g#XJ	8b
.	4e	4a	8ccn
.	.	.	8ddJ
4r	[2c	8r	[2ee
.	.	8eL	.
4A	.	8f	.
.	.	8gJ	.
=44	=44	=44	=44
2F	4c]	2a	8eeL]
.	.	.	8gg
.	4d	.	8ff
.	.	.	8eeJ
4r	[2B	8r	[2dd
.	.	8dL	.
4G	.	8e	.
.	.	8fJ	.
=45	=45	=45	=45
2E	4B]	2g	8ddL]
.	.	.	8ff
.	4c	.	8ee
.	.	.	8ddJ
4r	[2A	8r	[2cc
.	.	8cL	.
4F	.	8d	.
.	.	8eJ	.
=46	=46	=46	=46
[2D/	4A]	[2f	8ccL]
.	.	.	8ee
.	4B	.	8dd
.	.	.	8ccJ
8DL]	[2G#X	8fL]	[2b
8C	.	8e	.
8BB	.	8d	.
8DJ	.	8fJ	.
=47	=47	=47	=47
4.C	4G#]	[2e	8bL]
.	.	.	8a
.	2E	.	8g#X
8BB	.	.	8bJ
4C	.	4.e]	8aL
.	.	.	8bJ
4AA	[4A	.	[4cc
.	.	8a	.
!!LO:LB:g=original
=48	=48	=48	=48
4.D/	4A]	4f	8ccL]
.	.	.	8b
.	2F	[4a	8a
8C	.	.	8ccJ
4D/	.	4.a]	8bL
.	.	.	8ccJ
4BB	4D	.	[4dd
.	.	8b	.
=49	=49	=49	=49
4.E	4B	4g#X	8ddL]
.	.	.	8cc
.	2G#X	[4b	8b
8D	.	.	8ddJ
4E	.	4.b]	8ccL
.	.	.	8ddJ
4C	4G#	.	[4ee
.	.	8cc	.
=50	=50	=50	=50
4.F	4A	[2a	8eeL]
.	.	.	8dd
.	4e	.	8cc#X
8E	.	.	8eeJ
4F	4A	4a]	8ddL
.	.	.	8eeJ
4D	[4d	8g#XL	[4ff
.	.	8aJ	.
=51	=51	=51	=51
2.G#X	8dL]	4b	4ff]
.	8c	.	.
.	8B	4dd	2ee
.	8dJ	.	.
.	8cL	4g#X	.
.	8B	.	.
4E	8A	[4bn	4dd
.	8G#XJ	.	.
=52	=52	=52	=52
4A	4.A	8bL]	4cc
.	.	8aJ	.
4F	.	4cc	2aa
.	8B	.	.
4D	2Bt	8r	.
!!LO:MO:ori
*	*	*clefC1	*
!!LO:MO:end
.	.	8ffL	.
4E	.	8ee	4gg#X
.	.	[8ddJ	.
=53	=53	=53	=53
2.AA	2A	8ddL]	4aa
.	.	8dd	.
.	.	8cc	4ee
.	.	8bJ	.
.	8r	2a	2cc
.	8dL	.	.
4A	8c	.	.
.	8B-XJ	.	.
!!LO:LB:g=original
=54	=54	=54	=54
2F	2A	8r	4r
.	.	8b-XL	.
.	.	8a	4cc
.	.	8gJ	.
4r	8r	2f	2a
.	8B-L	.	.
4F	8A	.	.
.	8GJ	.	.
=55	=55	=55	=55
2D	2F	8r	4r
.	.	8ggL	.
.	.	8ff	4aa
.	.	8eeJ	.
4r	8r	2dd	2ff
.	8gL	.	.
4d	8f	.	.
.	8eJ	.	.
=56	=56	=56	=56
2B-	2d	8r	4r
.	.	8ee-XL	.
.	.	8dd	4ff
.	.	8ccJ	.
4r	8r	2b-	2dd
.	8e-XL	.	.
4B-	8d	.	.
.	8cJ	.	.
=57	=57	=57	=57
2G	4B-	2r	8r
.	.	.	8cccL
.	4g	.	8bb-
.	.	.	8aaJ
!!LO:MO:ori
*	*	*clefC3	*
!!LO:MO:end
8r	2e	4r	8ggL
8AL	.	.	8ff
8G	.	4b-	8ee
8FJ	.	.	8ddJ
=58	=58	=58	=58
2E	8r	[2g	4cc
.	8cL	.	.
.	8B-	.	4dd
.	8AJ	.	.
8r	[2G	8gL]	[2b-
8FL	.	8a	.
8E	.	8g	.
8DJ	.	8fJ	.
=59	=59	=59	=59
2C	2G]	8eL	4b-]
.	.	8cc	.
.	.	8b-	4gg
.	.	8aJ	.
2r	8r	8gL	[2ee
.	8dL	8b-	.
.	8c	8a	.
.	8B-J	8ddJ	.
!!LO:LB:g=original
=60	=60	=60	=60
1r	2A	4cc	8eeL]
.	.	.	8aa
.	.	4e	8gg
.	.	.	8ffJ
.	8r	[2c	8eeL
.	8B-L	.	8dd
.	8A	.	8cc
.	8GJ	.	8b-J
=61	=61	=61	=61
2F	4A	4c]	8aL
.	.	.	8ff
.	4B	4a-X	8ee
.	.	.	8dd#XJ
2C	4c	8gL	[2ee
.	.	8dd-X	.
.	4e	8cc	.
.	.	8bJ	.
=62	=62	=62	=62
2E	2c	[2cc	8eeL]
.	.	.	8ff
.	.	.	8ee
.	.	.	8dd#XJ
2G	4r	8ccL]	[2ee
.	.	8dd-X	.
.	4e	8cc	.
.	.	8bJ	.
=63	=63	=63	=63
2B-	2c	[2cc	8eeL]
.	.	.	8gg
.	.	.	8ff#X
.	.	.	8eeJ
4A	4r	4.cc]	8ff#L
.	.	.	8ggJ
4G	4e-X	.	4aa
.	.	[8cc	.
=64	=64	=64	=64
[2F#X	2A	8cc]L	2.dd
.	.	8b-	.
.	.	8a	.
.	.	8gJ	.
8F#L]	2r	[2a	.
8D	.	.	.
8E	.	.	4dd
8F#J	.	.	.
=65	=65	=65	=65
4G	2d	8aL]	[2b-
.	.	8a-X	.
4D	.	8g	.
.	.	8f#XJ	.
2BB-	2G	[2g	8b-L]
.	.	.	8ee-X
.	.	.	8dd
.	.	.	8cc#XJ
!!LO:LB:g=original
=66	=66	=66	=66
4r	2B-	8gL]	[2dd
.	.	8a-X	.
4D	.	8g	.
.	.	8f#XJ	.
2BB-	2d	4g	8ddL]
.	.	.	8ee-X
.	.	[4g#X	8dd
.	.	.	8cc#XJ
=67	=67	=67	=67
8r	2f	8g#L]	2dd
8CL	.	8a	.
8BB	.	8g#X	.
8AAJ	.	8aJ	.
8GG#XL	4e	[2b	2r
8EE	.	.	.
8FF#X	4d	.	.
8GG#J	.	.	.
=68	=68	=68	=68
8AAL	[2c#X	4b]	1r
8A	.	.	.
8G	.	4b-X	.
8FJ	.	.	.
8EL	8c#L]	4g	.
8F	8A	.	.
8G	8B	4e	.
8EJ	8c#J	.	.
=69	=69	=69	=69
8FL	4d	2.a	1r
8G	.	.	.
8F	4A	.	.
8EJ	.	.	.
8DL	[2f	.	.
8C	.	.	.
8BB-	.	4d	.
8AAJ	.	.	.
=70	=70	=70	=70
8GGL	4f]	2.b-	1r
8AA	.	.	.
8BB-	4G	.	.
8GGJ	.	.	.
8CL>	[2e	.	.
8D	.	.	.
8E	.	4c	.
8CJ	.	.	.
=71	=71	=71	=71
8FL	4e]	2.a	1r
8G	.	.	.
8A	4f	.	.
8FJ	.	.	.
8B-L	[2d	.	.
8A	.	.	.
8G	.	4b-	.
8FJ	.	.	.
!!LO:LB:g=original
=72	=72	=72	=72
8EL	8dL]	[2g	1r
8D	8f	.	.
8C#X	8e	.	.
8BBJ	8dJ	.	.
8AAL	[2c#X	8gL]	.
8GG	.	8b-	.
8FF	.	8a	.
8EEJ	.	8gJ	.
=73	=73	=73	=73
4DD	8c#L]	2a	1r
.	8e-X	.	.
4A	8d	.	.
.	8c#XJ	.	.
4F	8dL	2d	.
.	8g	.	.
4D	8f	.	.
.	8eJ	.	.
=74	=74	=74	=74
4r	8dL	2f	1r
.	8e-X	.	.
4AA	8d	.	.
.	8c#XJ	.	.
4FF	8dL	2a	.
.	8g	.	.
4DD	8f	.	.
.	8eJ	.	.
=75	=75	=75	=75
8r	8d#XL	2cc	1r
8GL	8e	.	.
8F#X	8d#	.	.
8EJ	8eJ	.	.
8D#XL	8f#XL	4b	.
8C#X	8e	.	.
8D#	8f#	4a	.
8BBJ	8d#XJ	.	.
=76	=76	=76	=76
4E	8BL	[2g#X	1r
.	8c	.	.
4EE	8B	.	.
.	8cJ	.	.
4BB	4d	8g#L]	.
.	.	8e	.
4D	4B	8f#X	.
.	.	8g#J	.
=77	=77	=77	=77
4C	4A	8aL	2ee
.	.	8b-X	.
4r	4e	8a	.
.	.	8g#XJ	.
4r	4c	8aL	2a
.	.	8dd	.
4A	4r	8cc	.
.	.	8bJ	.
!!LO:LB:g=original
=78	=78	=78	=78
2F#X	4r	8aL	2cc
.	.	8b-X	.
.	4e	8a	.
.	.	8g#XJ	.
4r	4c	8aL	2ee
.	.	8dd	.
4A	[4e	8cc	.
.	.	8bJ	.
=79	=79	=79	=79
4F#X	4e]	8a#XL	2gg
.	.	8ff#X	.
4C#X	4A#X	8ee	.
.	.	8ddJ	.
4AA#	4r	8cc#XL	4ff#X
.	.	8b	.
4FF#X	8F#XL	8a#X	4ee
.	8GJ	8cc#J	.
=80	=80	=80	=80
4r	2An	8f#XL	[2dd#X
.	.	8g	.
4BB	.	8f#	.
.	.	8gJ	.
4F#X	4r	4a	8dd#L]
.	.	.	8b
[4A	[4B	4f#	8cc#X
.	.	.	8dd#J
=81	=81	=81	=81
4A]	8BL]	4e	[2ee
.	8c	.	.
4G#X	8d	4b	.
.	8BJ	.	.
[2A	4c	[2a	8eeL]
.	.	.	8ffn
.	4c#X	.	8gg
.	.	.	8eeJ
=82	=82	=82	=82
8AL]	2.d	8aL]	8ffL
8B	.	8g#X	8eeJ
8c	.	8f#X	[4dd
8AJ	.	8aJ	.
4B	.	4g	8ddL]
.	.	.	8ee
4A	4c	4a	8ff
.	.	.	8ddJ
=83	=83	=83	=83
4G#X	4B	4b	8eeL
.	.	.	8ddJ
4E	4e	8aL	[4cc
.	.	8g#XJ	.
4F	8cL	[2a	8ccL]
.	8BJ	.	8dd
[4F#X	4c	.	8ee-X
.	.	.	8ccJ
!!LO:LB:g=original
=84	=84	=84	=84
4F#X]	4A	4a]	8ddL
.	.	.	8ccJ
2G	4d	8gL	[4b
.	.	8f#XJ	.
.	4e-X	4g	8bL]
.	.	.	8cc
[4A-X	[4f	4r	8dd
.	.	.	8bJ
=85	=85	=85	=85
4A-]	8fL]	4r	[1cc
.	8B	.	.
[4A	8c	[4f#X	.
.	8dJ	.	.
8AL]	[2e-X	8f#L]	.
8G	.	8g	.
8F#X	.	8a	.
8AJ	.	8f#J	.
=86	=86	=86	=86
2G	8e-]	4g	2cc]
.	[4.d	.	.
.	.	8fnL	.
.	.	8a-XJ	.
2GG	4d]	8gL	2b
.	.	8f	.
.	[4G	8e	.
.	.	8dJ	.
=87	=87	=87	=87
2C	8GL>]	4e	2cc
.	8G	.	.
.	8A	4g	.
.	8BJ	.	.
8r	4c	4e	4r
8CL	.	.	.
8D	4r	[4g	4cc
8EJ	.	.	.
=88	=88	=88	=88
2F	4r	8gL]	2a
.	.	8g	.
.	4c	8f	.
.	.	8eJ	.
8r	2A	4f	4r
8GL	.	.	.
8F	.	4r	4aa
8EJ	.	.	.
=89	=89	=89	=89
2D	8r	4r	2ff
.	8AL	.	.
.	8B	4a	.
.	8c#XJ	.	.
8r	2d	4f	4r
8DL	.	.	.
8E	.	[4a	4dd
8FJ	.	.	.
!!LO:LB:g=original
=90	=90	=90	=90
2G	4r	8aL]	2b
.	.	8a	.
.	4d	8g	.
.	.	8f#XJ	.
8r	2B	2g	4r
8AL	.	.	.
8G	.	.	4dd
8FJ	.	.	.
=91	=91	=91	=91
2E	8r	4r	[1gg
.	8BL	.	.
.	8c#X	4ee	.
.	8dJ	.	.
8r	4e	4cc#X	.
8EL	.	.	.
8F	4b-X	[4dd	.
8GJ	.	.	.
=92	=92	=92	=92
2A	8eL	8ddL]	2gg_
.	8dJ	8b	.
.	4e	8cc#X	.
.	.	8ddJ	.
4r	2c#X	[2ee	8ggL]
.	.	.	8gg
4A	.	.	8ff
.	.	.	8eeJ
=93	=93	=93	=93
2D	4r	8eeL]	2ff
.	.	8ee	.
.	4A	8dd	.
.	.	8cc#XJ	.
8r	2F	2dd	8r
8DL	.	.	8ggL
8C	.	.	8aa
8BB-J	.	.	8bb-J
=94	=94	=94	=94
2AA	4r	2r	8cccL
.	.	.	8ff
.	4c	.	8ee-X
.	.	.	8ddJ
4r	4A	8r	[2ee-
.	.	8b-L	.
4F	4c	8a	.
.	.	8gJ	.
=95	=95	=95	=95
2BB-	4r	8fL	4ee-]
.	.	8cc	.
.	4F	8b-	4dd
.	.	8aJ	.
8r	2D	4b-	8r
8BB-L	.	.	8eeL
8AA	.	4r	8ff#X
8GGJ	.	.	8ggJ
!!LO:LB:g=original
=96	=96	=96	=96
4FF#X	4r	2r	8aaL
.	.	.	8dd
4r	4A	.	8cc
.	.	.	8b-J
4r	4F#X	8r	[2cc
.	.	8gL	.
4D	[4A	8f#X	.
.	.	8eJ	.
=97	=97	=97	=97
4GG	4A]	4d	8ccL]
.	.	.	8b-
4AA	8GL	4r	8cc
.	8F#XJ	.	8ee-XJ
4BB-	[2G	8r	[2dd
.	.	8gL	.
4GG	.	8a	.
.	.	8b-J	.
=98	=98	=98	=98
4C	8GL]	4e-X	4dd]
.	8F#X	.	.
4E-X	8G	4r	8ccL
.	8B-J	.	8ddJ
4C	[2A	8r	[2ee-X
.	.	8aL	.
4AA	.	8b-	.
.	.	8ccJ	.
=99	=99	=99	=99
4D	8AL]	4f#X	4ee-]
.	8G	.	.
4F#X	8A	4r	8ddL
.	8cJ	.	8ee-XJ
4D	[2B-	8r	[2ff
.	.	8b-L	.
4BB-	.	8dd	.
.	.	8a-XJ	.
=100	=100	=100	=100
4E-X	8B-L]	4g	4ff]
.	8A	.	.
4G	8B-	4r	8ee-XL
.	8dJ	.	8ffJ
4E	[2c	8r	[2gg
.	.	8anL	.
4C	.	8b-	.
.	.	8gJ	.
=101	=101	=101	=101
4F	8cL]	4a	4gg]
.	8B-	.	.
4A	8c	4r	8ffL
.	8e-XJ	.	8ggJ
4F#X	8dL	2r	[2aa
.	8c	.	.
4D	8B-	.	.
.	8AJ	.	.
!!LO:LB:g=original
=102	=102	=102	=102
4G	4.B-	2r	8aaL]
.	.	.	8ddJ
4E-X	.	.	2gg
.	8c	.	.
4C	2At	8r	.
.	.	8ee-XL	.
4D	.	8dd	4ff#X
.	.	8ccJ	.
=103	=103	=103	=103
4G	8GL	4b-	4gg
.	8e-X	.	.
4B-	8d	4r	4r
.	8cJ	.	.
2G	2B-	8r	4r
.	.	8ccL	.
.	.	8b-	4gg
.	.	8aJ	.
=104	=104	=104	=104
4r	8r	2g	2ee
.	8cL	.	.
4G	8B-	.	.
.	8AJ	.	.
2E	2G	4r	8r
.	.	.	8ffL
.	.	4g	8ee
.	.	.	8ddJ
=105	=105	=105	=105
4r	8r	2e	2cc
.	8dL	.	.
4A	8c	.	.
.	8B-J	.	.
2F	2A	8r	4r
.	.	8b-L	.
.	.	8a	4cc
.	.	8gJ	.
=106	=106	=106	=106
4r	8r	2f	2a
.	8B-L	.	.
4F	8A	.	.
.	8GJ	.	.
[2D	2F	4r	8r
.	.	.	8ggL
.	.	4a	8ff
.	.	.	8eeJ
=107	=107	=107	=107
4D]	2A	[2f	8ddL
.	.	.	8ee-X
2F	.	.	8dd
.	.	.	8cc#XJ
.	2D	8fL]	[2dd
.	.	8g	.
[4BB-	.	8f	.
.	.	8eJ	.
!!LO:LB:g=original
=108	=108	=108	=108
4BB-]	2F	4d	8ddL]
.	.	.	8ee-X
2D	.	[4f	8dd
.	.	.	8cc#XJ
.	2A	8fL]	[2dd
.	.	8g	.
[4F	.	8f	.
.	.	8eJ	.
=109	=109	=109	=109
4F]	2B-	4d	8ddL]
.	.	.	8ee-X
[4G	.	4e	8dd
.	.	.	8cc#XJ
8G]	4A	8fL	4.dd
4F	.	8a	.
.	4G	8b	.
8E	.	8cc#XJ	8ee
=110	=110	=110	=110
[2D	[2F	4dd	4ff
.	.	4ff	4aa
8DL]	8FL]	4dd	4ff
8C#X	8E	.	.
8D	8F	4a	4r
8EJ	8GJ	.	.
=111	=111	=111	=111
[2F	8AL	2f	4dd
.	8B-X	.	.
.	8A	.	2a
.	8G#XJ	.	.
8FL]	[2A	2c	.
8F	.	.	.
8E	.	.	[4cc
8DJ	.	.	.
=112	=112	=112	=112
[2C	8AL]	2e	4cc]
.	8A	.	.
.	8G	.	2ee
.	8FJ	.	.
8C]	4E	2g#X	.
4BB	.	.	.
.	[4D	.	[4ff
8BB-X	.	.	.
=113	=113	=113	=113
[1AA	8DL]	2a	4ff]
.	8E	.	.
.	8D	.	2ee
.	8C#XJ	.	.
.	8DL	4gn	.
.	8E	.	.
.	8F	4f	[4dd
.	8GJ	.	.
!!LO:LB:g=original
=114	=114	=114	=114
8AAL]	4A	[2e	4dd]
8G	.	.	.
8A	4r	.	[4cc#X
8B-J	.	.	.
8AL	2r	8eL]	8cc#L]
8G	.	8c#X	8a
8F	.	8d	8b
8EJ	.	8eJ	8cc#J
=115	=115	=115	=115
2F#X	8r	4A	2dd
.	8cL	.	.
.	8d	4a	.
.	8e-XJ	.	.
4r	8dL	2f#X	4r
.	8c	.	.
4D	8B-	.	4dd
.	8AJ	.	.
=116	=116	=116	=116
4GG	4G	8r	2b-
.	.	8f#XL	.
4r	4d	8g	.
.	.	8aJ	.
4r	[2B-	8gL	2r
.	.	8f	.
4G	.	8e	.
.	.	8dJ	.
=117	=117	=117	=117
2E	8B-L]	4c	8r
.	8G	.	8b-L
.	8A	4r	8cc
.	8B-J	.	8ddJ
4r	8AL	2r	8ccL
.	8G	.	8b-
4C	8F	.	8a
.	8EJ	.	8gJ
=118	=118	=118	=118
4F	[1F	8r	[1a
.	.	8eL	.
4C	.	8f	.
.	.	8gJ	.
4AA	.	8fL	.
.	.	8e-X	.
4FF	.	8d	.
.	.	8c#XJ	.
=119	=119	=119	=119
[2BB-	8FL]	4d	4a]
.	8F	.	.
.	8E	4r	4g
.	8DJ	.	.
8BB-L]	4E	4r	[2cc
8AA	.	.	.
8GG	[4G	4e	.
8BB-J	.	.	.
!!LO:LB:g=original
=120	=120	=120	=120
8AAL	4G]	4c	4cc]
8BBJ	.	.	.
[4C	8F#XL	4r	4a
.	8EJ	.	.
8CL]	4F#	4r	[2dd
8BB	.	.	.
8AA	[4A	4f#X	.
8CJ	.	.	.
=121	=121	=121	=121
8BBL	4A]	4d	4dd]
8C#XJ	.	.	.
[4D/	8G#XL	4r	4b
.	8F#XJ	.	.
8DL]	4G#	4r	[2ee
8C#X	.	.	.
8BBn	[4B	4g#X	.
8DJ	.	.	.
=122	=122	=122	=122
8C#XL	4B]	4e	8eeL]
8DJ	.	.	8ff
[4E	4B-X	4r	8gg
.	.	.	8ddJ
8EL]	[2A	2r	8cc#XL
8D	.	.	8bb-
8C#	.	.	8aa
8EJ	.	.	8ggJ
=123	=123	=123	=123
4D	4A]	8r	[1ff
.	.	8ddL	.
4E	4G	8cc#X	.
.	.	8eeJ	.
4F	4A	8ddL	.
.	.	8cc	.
4D	[4d	8b-X	.
.	.	8aJ	.
=124	=124	=124	=124
2G	4d]	8b-L	4ff]
.	.	8aJ	.
.	4B-	[4g	8eeL
.	.	.	8ddJ
4r	4G	8gL]	[2ee
.	.	8a	.
4C	4E	8b-	.
.	.	8gJ	.
=125	=125	=125	=125
2F	4r	8aL	4ee]
.	.	8gJ	.
.	4A	[4f	8ddL
.	.	.	8cc#XJ
4r	4F	8fL]	[2dd
.	.	8g	.
4FF	4D	8a	.
.	.	8fJ	.
!!LO:LB:g=original
=126	=126	=126	=126
[2BB-	4r	8gL	4dd]
.	.	8fJ	.
.	4G	[4e-X	8ccnL
.	.	.	8b-J
8BB-L]	4E-X	8e-L]	[2cc
8AA	.	8f#X	.
8BB-	4C	8g	.
8GGJ	.	8eJ	.
=127	=127	=127	=127
8BB-L	[2D	8f#XL	2cc_
8AA	.	8gJ	.
8GG	.	4a	.
8FF#XJ	.	.	.
[2GG	8DL]	4d	8ccL]
.	8D	.	8b-
.	8E	4r	8cc
.	8F#XJ	.	8aJ
=128	=128	=128	=128
8GGL]	4G	1r	8b-L
8FF#X	.	.	8dd
8GG	4r	.	8ee-X
8AAJ	.	.	8ccJ
8BB-L	2r	.	8ddL
8GG	.	.	8gg
8BB-	.	.	8dd
8DJ	.	.	[8ccJ
=129	=129	=129	=129
[1G	2d	4r	8ccL]
.	.	.	8b-
.	.	4A	8cc
.	.	.	8ee-XJ
.	2G	4B-	8ddL
.	.	.	8cc
.	.	4c	8b-
.	.	.	8aJ
=130	=130	=130	=130
8GL]	2B-	2d	8gL
8D	.	.	8f#XJ
8C	.	.	4g
8AAJ	.	.	.
8BB-L	2d	4r	4r
8D	.	.	.
8GG	.	4A	4a
8FFJ	.	.	.
=131	=131	=131	=131
8EEL	2f	2B	2g#X
8E	.	.	.
8D	.	.	.
8BBJ	.	.	.
8CL	4e	4r	4a
8E	.	.	.
8AA	4d	[4f	4r
8GG#XJ	.	.	.
!!LO:LB:g=original
=132	=132	=132	=132
8AAL	[2c#X	4f]	2r
8A	.	.	.
8G	.	4e	.
8EJ	.	.	.
[2F	8c#L]	2r	8r
.	8A	.	8aaL
.	8B	.	8gg
.	8c#J	.	8eeJ
=133	=133	=133	=133
2F]	4d	2a	8ffL
.	.	.	8aa
.	[4A	.	8dd
.	.	.	8cc#XJ
2BB-	8AL]	2d	[2dd
.	8B-X	.	.
.	8A	.	.
.	8G#XJ	.	.
=134	=134	=134	=134
1AA	8AL	2f	8ddL]
.	8BB	.	8ff
.	8C#X	.	8ee
.	8DJ	.	8ddJ
.	8EL	2a	8cc#XL
.	8F	.	8dd
.	8G	.	8b
.	8EJ	.	8cc#J
=135	=135	=135	=135
[1D	8F#XL	2b-	4.dd
.	8AJ	.	.
.	[4G	.	.
.	.	.	8cc#X
.	8GL]	4a	4.dd
.	8F#XJ	.	.
.	[4B-	4g	.
.	.	.	8cc#
=136	=136	=136	=136
1D_	8B-L]	[2f#X	4.dd
.	8AJ	.	.
.	2c	.	.
.	.	.	8ee-X
.	.	8f#L]	4a
.	.	8d	.
.	8BL	8e	4r
.	8AJ	8f#J	.
=137	=137	=137	=137
1D_	4B	[2g	8r
.	.	.	8ddL
.	2B-X	.	8ee
.	.	.	8ggJ
.	.	8gL]	2cc#X
.	.	8f#X	.
.	8AL	8g	.
.	8GJ	8eJ	.
=138	=138	=138	=138
1D];	1A;	1f#X;	1dd;
==	==	==	==
*-	*-	*-	*-
!!!RDF**kern: > = above
!!!RDF**kern: < = below
!!!system-decoration: [(s1,s2,s3,s4)]
!!!URL-pdf: https://vmirror.imslp.org/files/imglnks/usimg/8/88/IMSLP504269-PMLP05843-BGA-25.1.pdf#page=13 @{SMS1}, page 13
!!!URL-pdf: https://s9.imslp.org/files/imglnks/usimg/1/1d/IMSLP469177-PMLP5843-Bach,_J.S._-_The_Art_of_the_Fugue.pdf#page=14 @{SMS2}, page 14
!!!URL-youtube: https://www.youtube.com/watch?v=OMtjlaDEMdI&t=614s Netherlands Bach Society/Malinowski
!!!URL-youtube: https://www.youtube.com/watch?v=N6sUlZa-IrU&t=614s Netherlands Bach Society
!!!SMS: @{SMS1}
!!!SMS1: Bach-Gesellschaft Ausgabe, Band 25.1 Leipzig: Breitkopf und Härtel, 1878. Plate B.W. XXV (1).
!!!SMS2: Bach-Gesellschaft Ausgabe, Band 47 Leipzig: Breitkopf und Härtel, 1926. Plate B.W. XLVII.
!!!PED: Wilhelm Rust
!!!PED-ODT: 1822-1892
!!!ONB: Die Kunst der Fuge nach dem Berliner Autograph in Anordnung und Lesarten
!!!ENC: Craig Stuart Sapp
!!!END: 2024/03/21
!!!EED: Craig Stuart Sapp
!!!EEV: 2024/03/28
!!!title: @{OPR} (@{SCA}), @{OTL}
!!!filter-keyboard: autostem -r | satb2gs | shed -e s/clefC./clefG2/I
!!!filter-modern: modori -m | autostem -r
